icons/fill-new-container-bag-goods.svg

<svg xmlns="http://www.w3.org/2000/svg" width="32px" height="32px" viewBox="0 0 32 32" version="1.1">
    <title>fill-new-container-bag-goods</title>
    <g id="fill-new-container-bag-goods" stroke-width="1" fill-rule="evenodd">
        <path d="M16,2 C19.3137085,2 22,4.6862915 22,8 L20,8 C20,5.790861 18.209139,4 16,4 C13.790861,4 12,5.790861 12,8 L10,8 C10,4.6862915 12.6862915,2 16,2 Z M26.0997383,10 C26.6114969,10 27.0406704,10.3863685 27.0942437,10.8953152 L28.8837174,27.8953152 L28.8892119,28 C28.8892119,28.5522847 28.4414967,29 27.8892119,29 L4.11078806,29 L4.00610328,28.9945055 C3.45685308,28.9366896 3.0584668,28.4445654 3.11628261,27.8953152 L4.90575629,10.8953152 C4.95932963,10.3863685 5.38850315,10 5.90026175,10 L26.0997383,10 Z M11,13 C10.4477153,13 10,13.4477153 10,14 L10,16 C10,16.5522847 10.4477153,17 11,17 C11.5522847,17 12,16.5522847 12,16 L12,14 C12,13.4477153 11.5522847,13 11,13 Z M21,13 C20.4477153,13 20,13.4477153 20,14 L20,16 C20,16.5522847 20.4477153,17 21,17 C21.5522847,17 22,16.5522847 22,16 L22,14 C22,13.4477153 21.5522847,13 21,13 Z" id="&#24418;&#29366;" fill-rule="nonzero" />
    </g>
</svg>

<svg xmlns="http://www.w3.org/2000/svg" viewBox="0 0 32 32"><path fill="currentColor" d="M16 2a6 6 0 0 1 6 6h-2a4 4 0 1 0-8 0h-2a6 6 0 0 1 6-6m10.1 8a1 1 0 0 1 .994.895l1.79 17 .005.105a1 1 0 0 1-1 1H4.111l-.105-.005a1 1 0 0 1-.89-1.1l1.79-17A1 1 0 0 1 5.9 10zM11 13a1 1 0 0 0-1 1v2a1 1 0 0 0 2 0v-2a1 1 0 0 0-1-1m10 0a1 1 0 0 0-1 1v2a1 1 0 0 0 2 0v-2a1 1 0 0 0-1-1"/></svg>
